!!!OTL: GUTER MOND DU GEHST SO STILLE
!!!ARE: Europa, Mitteleuropa, Deutschland
!!!SCT: B0468
!!!YEM: Copyright 1995, estate of Helmut Schaffrath.
**kern
*ICvox
*Ivox
*M4/4
*k[f#]
*G:
{8dd
8cc
=1
4b
4b
8b
8cc
8dd
8ee
=2
8dd
8cc
4a
4r}
{8dd
8cc
=3
4b
4b
8a
8g
8a
8b
=4
2g
4r}
{8dd
8cc
=5
4b
4b
8b
8cc
8dd
8ee
=6
8dd
8cc
4a
4r}
{8dd
8cc
=7
4b
4b
8a
8g
8a
8b
=8
2g
4r}
{8a
8b
=9
4cc
4a
4r
8b
8cc
=10
4dd
4b
4r}
{8dd
8dd
=11
4.ee
8dd
8ee
8dd
8cc
8b
=12
4b
4a
4r}
{8dd
8cc
=13
4b
4b
8b
8cc
8dd
8ee
=14
8dd
8cc
4a
4r}
{8dd
8cc
=15
4b
4b
8a
8g
8a
8b
=16
2g
4r}
==
!!!AGN: Liebes - Lied, Leid, Klage
!!!ONB: ESAC (Essen Associative Code) Database: BOEHME
!!!AMT: simple quadruple
!!!AIN: vox
!!!EED: Helmut Schaffrath
!!!EEV: 1.0
*-
